**kern	**text	**kern	**text	**kern	**text	**kern	**text	**kern	**text	**cdata-harm
*staff5	*staff5	*staff4	*staff4	*staff3	*staff3	*staff2	*staff2	*staff1	*staff1	*
=1-	=1-	=1-	=1-	=1-	=1-	=1-	=1-	=1-	=1-	=1-
*clefF4	*	*clefGv2	*	*clefGv2	*	*clefGv2	*	*clefG2	*	*
*k[b-]	*	*k[b-]	*	*k[b-]	*	*k[b-]	*	*k[b-]	*	*
*M4/4	*	*M4/4	*	*M4/4	*	*M4/4	*	*M4/4	*	*
2.F\	Sec-	2r	.	1r	.	1r	.	1r	.	<ANTIF_2v+2mot
.	.	2c\	Sec-	.	.	.	.	.	.	.
4E\	co&egrave;	.	.	.	.	.	.	.	.	.
=2	=2	=2	=2	=2	=2	=2	=2	=2	=2	.
2D\	l'ar-	4B-\	co&egrave;	1r	.	1r	.	1r	.	.
.	.	[4A/	l'ar-	.	.	.	.	.	.	.
4D\	bor	8A/L]	.	.	.	.	.	.	.	.
.	.	8A/J	bor	.	.	.	.	.	.	.
[4F\	gen-	4F/	gen-	.	.	.	.	.	.	.
=3	=3	=3	=3	=3	=3	=3	=3	=3	=3	.
4F\]	.	2G/	ti-	1r	.	2r	.	1r	.	.
4E\	ti-	.	.	.	.	.	.	.	.	.
2F\	le	2A/	le	.	.	[2f\	Sec-	.	.	.
=4	=4	=4	=4	=4	=4	=4	=4	=4	=4	.
1r	.	1r	.	1r	.	4f\]	.	2cc\	Sec-	.
.	.	.	.	.	.	4e\	co&egrave;	.	.	.
.	.	.	.	.	.	2d\	l'ar-	4b-\	co&egrave;	.
.	.	.	.	.	.	.	.	[4a/	l'ar-	.
=5	=5	=5	=5	=5	=5	=5	=5	=5	=5	.
1r	.	1r	.	1r	.	4d\	bor	8a/L]	.	.
.	.	.	.	.	.	.	.	8a/J	bor	.
.	.	.	.	.	.	2f\	gen-	4f/	gen-	.
.	.	.	.	.	.	.	.	2g/	ti-	.
.	.	.	.	.	.	4e\	ti-	.	.	.
=6	=6	=6	=6	=6	=6	=6	=6	=6	=6	.
1r	.	2.A/	Sec-	2.F/	Sec-	2f\	le	1c/	le	>
.	.	.	.	.	.	4r	.	.	.	.
.	.	4G/	co&egrave;	4E/	co&egrave;	4c\	Sec-	.	.	<CON_3v+2doub+2mot
=7	=7	=7	=7	=7	=7	=7	=7	=7	=7	.
1r	.	2F/	l'ar-	2D/	l'ar-	4B-\	co&egrave;	1r	.	.
.	.	.	.	.	.	[4A/	l'ar-	.	.	.
.	.	4F/	bor	4D/	bor	8A/L]	.	.	.	.
.	.	.	.	.	.	8A/J	bor	.	.	.
.	.	4A/	gen-	[4F/	gen-	4F/	gen-	.	.	.
=8	=8	=8	=8	=8	=8	=8	=8	=8	=8	.
2C/	Sec-	4G/	ti-	4F/]	.	2c\	ti-	2cc\	Sec-	.
.	.	4C/	le	4E/	ti-	.	.	.	.	.
4BB-/	co&egrave;	4r	.	2F/	le	4F/	le	4dd\	co&egrave;	.
[4AA/	l'ar-	[4c\	l'ar-	.	.	[4A/	l'ar-	[4cc\	l'ar-	.
=9	=9	=9	=9	=9	=9	=9	=9	=9	=9	.
8AA/L]	.	8c\L]	.	1r	.	8A/L]	.	8cc\L]	.	.
8AA/J	bor	8c\J	bor	.	.	8A/J	bor	8cc\J	bor	.
4FF/	gen-	4f\	gen-	.	.	4c\	gen-	4a/	gen-	.
2C/	ti-	2e\	ti-	.	.	2c\	ti-	2g/	ti-	.
=10	=10	=10	=10	=10	=10	=10	=10	=10	=10	.
1FF/	le	2f\	le	2r	.	2c\	le	2a/	le	>
.	.	2f\	Sec-	2c\	Sec-	4r	.	4r	.	<HOM_4v
.	.	.	.	.	.	4c\	Sec-	4f/	Sec-	.
=11	=11	=11	=11	=11	=11	=11	=11	=11	=11	.
1r	.	4d\	co&egrave;	4B-\	co&egrave;	4d\	co&egrave;	4g/	co&egrave;	.
.	.	[4c\	l'ar-	[4A/	l'ar-	[4e\	l'ar-	[4a/	l'ar-	.
.	.	8c\L]	.	8A/L]	.	8e\L]	.	8a/L]	.	.
.	.	8c\J	bor	8A/J	bor	8f\J	bor	8a/J	bor	.
.	.	[4c\	gen-	4c\	gen-	4e\	gen-	4g/	gen-	.
=12	=12	=12	=12	=12	=12	=12	=12	=12	=12	.
1r	.	4c\]	.	2G/	ti-	2d\	ti-	2g/	ti-	.
.	.	4Bn\	ti-	.	.	.	.	.	.	.
.	.	2c\	le	2C/	le	2e\	le	2g/	le	>
=13	=13	=13	=13	=13	=13	=13	=13	=13	=13	.
2r	.	2r	.	2r	.	2r	.	2cc\	Che	<HOM_5v
2F\	Che	2A/	Che	2c\	Che	2f\	Che	[2a/	mai	.
=14	=14	=14	=14	=14	=14	=14	=14	=14	=14	.
2D\	mai	2A/	mai	2d\	mai	2f\	mai	2a/]	.	.
2F\	le	2A/	le	2c\	le	2f\	le	2a/	le	.
=15	=15	=15	=15	=15	=15	=15	=15	=15	=15	.
2BB-/	fron-	2F/	fron-	2f\	fron-	2d\	fron-	2b-\	fron-	.
2D\	die'l	2F/	die'l	2f\	die'l	2d\	die'l	2a/	di&egrave;'l	.
=16	=16	=16	=16	=16	=16	=16	=16	=16	=16	.
1C/	ver-	1G/	ver-	2e\	ver-	2.g\	ver-	1cc\	ver-	.
.	.	.	.	2c\	de	.	.	.	.	.
.	.	.	.	.	.	4f\	.	.	.	.
=17	=17	=17	=17	=17	=17	=17	=17	=17	=17	.
2C/	de	2G/	de	1r	.	2e\	.	1cc\	de	>
[2F\	O	[2A/	O	.	.	2f\	de	.	.	<HOMlib_3v
=18	=18	=18	=18	=18	=18	=18	=18	=18	=18	.
4F\]	.	4A/]	.	2c\	O	1r	.	1r	.	.
4E\	per	4G/	per	.	.	.	.	.	.	.
2F\	ge-	2A/	ge-	4d\	per	.	.	.	.	.
.	.	.	.	4c\	ge-	.	.	.	.	.
=19	=19	=19	=19	=19	=19	=19	=19	=19	=19	.
4D\	lo&ograve;	4F/	lo&ograve;	4B-\	lo&ograve;	1r	.	1r	.	.
4C/	per	4E/	per	4A/	per	.	.	.	.	.
4.BB-/	ful-	4.D/	ful-	4.G/	ful-	.	.	.	.	.
8AA/	mi-	8C/	mi-	8F/	mi-	.	.	.	.	.
=20	=20	=20	=20	=20	=20	=20	=20	=20	=20	.
4GG/	ne-	8D/L	ne-	4G/	ne	1r	.	1r	.	.
.	.	8E/J	non	.	.	.	.	.	.	.
4FF/	non	2F/	per-	4A/	non	.	.	.	.	.
2GG/	per-	.	.	2B-\	per-	.	.	.	.	.
.	.	4E/	.	.	.	.	.	.	.	.
=21	=21	=21	=21	=21	=21	=21	=21	=21	=21	.
2FF/	de	4F/	de	2A/	de	4r	.	4r	.	>
.	.	2F/	O	.	.	2a\	O	2cc\	O	<HOM_3v
2r	.	.	.	2r	.	.	.	.	.	.
.	.	4G/	per	.	.	4g\	per	4bn\	per	.
=22	=22	=22	=22	=22	=22	=22	=22	=22	=22	.
1r	.	2A/	ge-	1r	.	4f\	ge-	2cc\	ge-	.
.	.	.	.	.	.	2e\	lo&ograve;	.	.	.
.	.	4c\	lo&ograve;	.	.	.	.	4a/	lo&ograve;	.
.	.	4B-\	per	.	.	4d\	per	4g/	per	.
=23	=23	=23	=23	=23	=23	=23	=23	=23	=23	.
1r	.	4.A/	ful-	1r	.	4.c\	ful-	4.f/	ful-	.
.	.	8G/	mi-	.	.	8B-\	mi-	8e/	mi-	.
.	.	4F/	ne	.	.	4A/	ne	4d/	ne	.
.	.	4E/	non	.	.	4G/	non	4c/	non	.
=24	=24	=24	=24	=24	=24	=24	=24	=24	=24	.
2r	.	2D/	per-	2r	.	2F/	per-	2Bn/	per-	.
4r	.	2C/	de	4r	.	4G/	de	2c/	de	>
[4C/	O	.	.	[4E/	O	4G/	non	.	.	<ANTIF_3v+1imit
=25	=25	=25	=25	=25	=25	=25	=25	=25	=25	.
4C/]	.	2r	.	4E/]	.	4.A/	per-	1r	.	.
4D\	per	.	.	4F/	per	.	.	.	.	.
.	.	.	.	.	.	8B-\	.	.	.	.
4.C/	ful-	[2E/	O	4.G/	ful-	2c\	.	.	.	.
8BB-/	mi-	.	.	8G/	mi-	.	.	.	.	.
=26	=26	=26	=26	=26	=26	=26	=26	=26	=26	.
4AA/	ne	4E/]	.	4A/	ne	1c\	de	2r	.	.
4FF/	non	4F/	per	2A/	non	.	.	.	.	.
2F\	per-	2A/	gie-	.	.	.	.	[2cc\	O	.
.	.	.	.	[4c\	per-	.	.	.	.	.
=27	=27	=27	=27	=27	=27	=27	=27	=27	=27	.
2C/	de	4G/	lo&ograve;	4c\]	.	4r	.	4cc\]	.	.
.	.	4E/	per	4G/	de	4g\	per	4b-\	per	.
2FF/	non	4.F/	ful-	4r	.	4.f\	ful-	4.a/	ful-	.
.	.	.	.	4F/	non	.	.	.	.	.
.	.	8G/	mi-	.	.	8e\	mi-	8g/	mi-	.
=28	=28	=28	=28	=28	=28	=28	=28	=28	=28	.
1FF/	per-	4A/	ne	2F/	per-	4d\	ne	4f/	ne	.
.	.	4G/	non	.	.	4c\	non	4g/	non	.
.	.	2F/	per-	2C/	.	2c\	per-	2a/	per-	.
=29	=29	=29	=29	=29	=29	=29	=29	=29	=29	.
1C/	de.	1E/	de.	1C/	de.	1c\	de.	1g/	de.	>
=30||	=30||	=30||	=30||	=30||	=30||	=30||	=30||	=30||	=30||	.
1r	.	3r	.	3r	.	3r	.	[3cc\	O	<HOM_4v
.	.	.	.	.	.	.	.	.	.	.
.	.	3e\	O	3c\	O	3g\	O	3cc\]	.	.
.	.	.	.	.	.	.	.	.	.	.
.	.	3d\	mu-	3B-\	mu-	3g\	mu-	3dd\	mu-	.
=31	=31	=31	=31	=31	=31	=31	=31	=31	=31	.
1r	.	3e\	ta-	3A/	ta-	3.a\	ta-	3cc\	ta-	.
.	.	3f\	ta&egrave;	3F/	ta&egrave;	.	.	3.cc\	ta&egrave;	.
.	.	.	.	.	.	6a\	ta&egrave;	.	.	.
.	.	3c\	la	3E/	la	3g\	la	.	.	.
.	.	.	.	.	.	.	.	6b-\	la	.
=32	=32	=32	=32	=32	=32	=32	=32	=32	=32	.
2r	.	2c\	leg-	2F/	leg-	2f\	leg-	2a/	leg-	.
4r	.	2c\	ge	4C/	ge	2e\	ge	2g/	ge	>
4C/	De	.	.	4E/	De	.	.	.	.	<CON_5v
=33	=33	=33	=33	=33	=33	=33	=33	=33	=33	.
4D\	la	1r	.	4F/	la	1r	.	4r	.	.
4E\	na-	.	.	4G/	na-	.	.	4g/	De	.
2F\	tu-	.	.	2A/	tu-	.	.	4f/	la	.
.	.	.	.	.	.	.	.	4e/	na-	.
=34	=34	=34	=34	=34	=34	=34	=34	=34	=34	.
2G\	ra	2r	.	2B-\	ra	4r	.	2d/	tu-	.
.	.	.	.	.	.	4g\	De	.	.	.
2r	.	4r	.	2r	.	4f\	la	4d/	ra&ograve;'l	.
.	.	4c\	De	.	.	4e\	na-	[4g/	so-	.
=35	=35	=35	=35	=35	=35	=35	=35	=35	=35	.
2r	.	4B-\	la	2r	.	2d\	tu-	4g/]	.	.
.	.	4A/	na-	.	.	.	.	4f#/	.	.
2C/	De	2G/	tu-	4r	.	2e\	ra&ograve;'l	2g/	le	.
.	.	.	.	4c\	De	.	.	.	.	.
=36	=36	=36	=36	=36	=36	=36	=36	=36	=36	.
4D\	la	4F/	ra	2B-\	la	2d\	so-	4r	.	.
4E\	na-	4r	.	.	.	.	.	4g/	De	.
2F\	tu-	4r	.	2A/	na-	2c\	le	4f/	la	.
.	.	4c\	De	.	.	.	.	4e/	na-	.
=37	=37	=37	=37	=37	=37	=37	=37	=37	=37	.
2G\	ra&ograve;'l	2B-\	la	4B-\	tu-	1r	.	4d/	tu-	.
.	.	.	.	2G/	ra&ograve;'l	.	.	4d/	ra&ograve;'l	.
2D\	so-	2A/	na-	.	.	.	.	2d/	so-	.
.	.	.	.	4F#/	so-	.	.	.	.	.
=38	=38	=38	=38	=38	=38	=38	=38	=38	=38	.
2G\	le	4B-\	tu-	4G/	le	1r	.	2d/	le	.
.	.	2G/	ra&ograve;'l	4B-\	&ograve;'l	.	.	.	.	.
2r	.	.	.	2A/	so-	.	.	2r	.	.
.	.	4F#/	so-	.	.	.	.	.	.	.
=39	=39	=39	=39	=39	=39	=39	=39	=39	=39	.
1r	.	2G/	le	2G/	le	4r	.	4r	.	.
.	.	.	.	.	.	4B-\	&ograve;'l	2g/	&ograve;'l	.
.	.	2r	.	2r	.	2A/	so-	.	.	.
.	.	.	.	.	.	.	.	4f#/	so-	.
=40	=40	=40	=40	=40	=40	=40	=40	=40	=40	.
4r	.	1r	.	4r	.	4G/	le	4g/	le	>
4C/	Men	.	.	4G/	Men	4c\	Men	4e/	Men	<HOM_4v
4.C/	pu&ograve;	.	.	4.G/	pu&ograve;	4.c\	pu&ograve;	4.e/	pu&ograve;	.
8AA/	di	.	.	8A/	di	8c\	di	8e/	di	.
=41	=41	=41	=41	=41	=41	=41	=41	=41	=41	.
4BB-/	qual-	1r	.	4F/	qual-	4B-\	qual-	4d/	qual-	.
4FF/	che	.	.	4F/	che	4A/	che	4c/	che	.
2C/	suo-	.	.	2E/	suo-	2G/	suo-	2c/	suo-	.
=42	=42	=42	=42	=42	=42	=42	=42	=42	=42	.
4FF/	le	1r	.	1F/	le	4A/	le	2c/	le	>
4F\	E	.	.	.	.	4A/	E	.	.	<CON_5v+2doub
4A\	sol	.	.	.	.	4c\	sol	2r	.	.
4B-\	le	.	.	.	.	4d\	le	.	.	.
=43	=43	=43	=43	=43	=43	=43	=43	=43	=43	.
2c\	stel-	4r	.	2r	.	2e\	stel-	2r	.	.
.	.	4c\	E	.	.	.	.	.	.	.
2F\	le	4c\	sol	4r	.	2f\	le	4r	.	.
.	.	4A/	le	4F/	E	.	.	4f/	E	.
=44	=44	=44	=44	=44	=44	=44	=44	=44	=44	.
1r	.	2d\	stel-	4F/	sol	2r	.	4a/	sol	.
.	.	.	.	4G/	le	.	.	4b-\	le	.
.	.	4c\	leA-	2A/	stel-	4r	.	2cc\	stel-	.
.	.	[4f\	mo-	.	.	4a\	E	.	.	.
=45	=45	=45	=45	=45	=45	=45	=45	=45	=45	.
2r	.	8f\L]	.	2B-\	leA-	4f\	sol	2dd\	leA-	.
.	.	8e\J	.	.	.	.	.	.	.	.
.	.	4d\	.	.	.	4g\	le	.	.	.
4r	.	4f\	.	4F/	mo-	4a\	stel-	2cc\	mo-	.
4C/	E	4e\	reA-	[4G/	ree'l	4g\	leA-	.	.	.
=46	=46	=46	=46	=46	=46	=46	=46	=46	=46	.
4E\	sol	4e\	mo-	4G/]	.	4g\	mo-	4cc\	ree'l	.
4F\	le	4c\	re	2c\	mon-	8f\L	.	2a/	mon-	.
.	.	.	.	.	.	8e\J	.	.	.	.
2G\	stel-	2r	.	.	.	2d\	.	.	.	.
.	.	.	.	4Bn\	do	.	.	[4g/	do	.
=47	=47	=47	=47	=47	=47	=47	=47	=47	=47	.
2A\	leA-	4r	.	2c\	reg-	2c\	re	4g/]	.	.
.	.	2c\	A-	.	.	.	.	4f#/	reg-	.
2G\	mo-	.	.	2d\	.	2r	.	2g/	ge.	.
.	.	4Bn\	mo-	.	.	.	.	.	.	.
=48	=48	=48	=48	=48	=48	=48	=48	=48	=48	.
2C/	ra	2c\	re	2e\	ge.	2g\	e'l	4r	.	>
.	.	.	.	.	.	.	.	4cc\	e'l	<CON_2v+1doub+1trip
4r	.	4r	.	4r	.	2a\	mon-	[2f/	mon-	.
4F\	e'l	4F/	e'l	4c\	e'l	.	.	.	.	.
=49	=49	=49	=49	=49	=49	=49	=49	=49	=49	.
2BB-/	mon-	2D/	mon-	2d\	mon-	2f\	do	4f/]	.	.
.	.	.	.	.	.	.	.	4b-\	do	.
2C/	do	2E/	do	[2c\	do	[2e\	reg-	2g/	reg-	.
=50	=50	=50	=50	=50	=50	=50	=50	=50	=50	.
1GG/	reg-	1G/	reg-	2c\]	.	2e\]	.	[1g/	ge.	.
.	.	.	.	[2Bn\	reg-	2d\	.	.	.	.
=51	=51	=51	=51	=51	=51	=51	=51	=51	=51	.
1GG/	ge.	1G/	ge.	2B\]	.	1d\	ge.	2g/]	.	>
.	.	.	.	2Bn\	ge.	.	.	4r	.	<CON_2v+1doub
.	.	.	.	.	.	.	.	4g/	E	.
=52	=52	=52	=52	=52	=52	=52	=52	=52	=52	.
1r	.	1r	.	2c\	E	2e\	E	4g/	col	.
.	.	.	.	.	.	.	.	[4g/	piom-	.
.	.	.	.	4c\	col	4e\	col	8g/L]	.	.
.	.	.	.	.	.	.	.	8g/J	boe	.
.	.	.	.	[4c\	piom-	[4e\	piom-	4g/	con	.
=53	=53	=53	=53	=53	=53	=53	=53	=53	=53	.
1r	.	1r	.	8c\L]	.	8e\L]	.	2.a/	l'o-	.
.	.	.	.	8c\J	boe	8e\J	boe	.	.	.
.	.	.	.	4c\	con	4e\	con	.	.	.
.	.	.	.	2d\	l'o-	2f\	l'o-	.	.	.
.	.	.	.	.	.	.	.	4f/	ro	.
=54	=54	=54	=54	=54	=54	=54	=54	=54	=54	.
1r	.	1r	.	2B-\	ro	2d\	ro	4r	.	>
.	.	.	.	.	.	.	.	4f/	Mi-	<CON_2v+1doub
.	.	.	.	4r	.	4r	.	[2f/	ra-	.
.	.	.	.	4c\	Mi-	4A/	Mi-	.	.	.
=55	=55	=55	=55	=55	=55	=55	=55	=55	=55	.
1r	.	1r	.	4.B-\	ra-	4.d\	ra-	4f/]	.	.
.	.	.	.	.	.	.	.	4f/	co-	.
.	.	.	.	8c\	co-	8c\	co-	.	.	.
.	.	.	.	4d\	lo	4B-\	li	4f/	li	.
.	.	.	.	4B-\	ri-	[4f\	ri-	4b-\	ri-	.
=56	=56	=56	=56	=56	=56	=56	=56	=56	=56	.
2r	.	2r	.	2c\	no-	4f\]	.	2g/	no-	.
.	.	.	.	.	.	4e\	no-	.	.	.
4r	.	4r	.	4F/	va	4f\	va	2a/	va	>
4F\	E	4c\	E	4A/	E	4f\	E	.	.	<HOM_4v
=57	=57	=57	=57	=57	=57	=57	=57	=57	=57	.
4.BB-/	fa	4.d\	fa	4B-\	fa	4.f\	fa	1r	.	.
.	.	.	.	4F/	ven-	.	.	.	.	.
8C/	ven-	8c\	ven-	.	.	8e\	ven-	.	.	.
4D\	det-	4A/	det-	4F/	det-	4d\	det-	.	.	.
4BB-/	ta	4B-\	ta	[4F/	ta	4d\	ta	.	.	.
=58	=58	=58	=58	=58	=58	=58	=58	=58	=58	.
2C/	no-	2G/	no-	4F/]	.	2c\	no-	2r	.	.
.	.	.	.	4E/	no-	.	.	.	.	.
2FF/	va	2F/	va	2F/	va	2c\	va	4r	.	>
.	.	.	.	.	.	.	.	4cc\	D'an-	<CON_3v
=59	=59	=59	=59	=59	=59	=59	=59	=59	=59	.
1r	.	1r	.	1r	.	4r	.	4b-\	ti-	.
.	.	.	.	.	.	4f\	D'an-	4a/	cool-	.
.	.	.	.	.	.	4e\	ti-	4g/	trag-	.
.	.	.	.	.	.	4d\	cool-	4f/	gio	.
=60	=60	=60	=60	=60	=60	=60	=60	=60	=60	.
1r	.	4r	.	1r	.	4.c\	trag-	4e/	ne	.
.	.	4c\	D'an-	.	.	.	.	4e/	l'a-	.
.	.	.	.	.	.	8A/	gio	.	.	.
.	.	4B-\	ti-	.	.	4d\	ne	2f/	ma-	.
.	.	4A/	cool-	.	.	4c\	l'a-	.	.	.
=61	=61	=61	=61	=61	=61	=61	=61	=61	=61	.
1r	.	4G/	trag-	1r	.	4B-\	ma-	2g/	toal-	.
.	.	4F/	gio	.	.	4A/	toal-	.	.	.
.	.	4E/	ne	.	.	2c\	lo-	4.g/	lo-	.
.	.	4C/	l'a-	.	.	.	.	.	.	.
.	.	.	.	.	.	.	.	16f/LL	.	.
.	.	.	.	.	.	.	.	16e/JJ	.	.
=62	=62	=62	=62	=62	=62	=62	=62	=62	=62	.
1r	.	4G/	ma-	1r	.	4Bn\	.	1d/	.	.
.	.	4F/	toal-	.	.	2c\	.	.	.	.
.	.	2G/	lo-	.	.	.	.	.	.	.
.	.	.	.	.	.	4B\	.	.	.	.
=63	=63	=63	=63	=63	=63	=63	=63	=63	=63	.
1r	.	1C/	ro.	2r	.	2c\	ro.	1e/	ro.	>
.	.	.	.	2G/	Ma	2e\	Ma	.	.	<CON_2v+1doub
=64	=64	=64	=64	=64	=64	=64	=64	=64	=64	.
1r	.	1r	.	4.c\	se	4.e\	se	4r	.	.
.	.	.	.	.	.	.	.	4c/	Ma	.
.	.	.	.	8B-\	ne	8d\	nel	.	.	.
.	.	.	.	4c\	lie-	4e\	lie-	4.g/	se	.
.	.	.	.	4d\	toA-	4f\	toA-	.	.	.
.	.	.	.	.	.	.	.	8f/	nel	.
=65	=65	=65	=65	=65	=65	=65	=65	=65	=65	.
2r	.	1r	.	1c\	pri-	2e\	pri-	4g/	lie-	.
.	.	.	.	.	.	.	.	4a/	toA-	.
4r	.	.	.	.	.	[2e\	le	2g/	pri-	.
8C/L	Rin-	.	.	.	.	.	.	.	.	<<CONlib_4v
8D/J	ver-	.	.	.	.	.	.	.	.	.
=66	=66	=66	=66	=66	=66	=66	=66	=66	=66	.
4E\	dir	1r	.	2c\	le	4e\]	.	4g/	le	>
2F\	al	.	.	.	.	4c\	nel	8a/L	Rin-	.
.	.	.	.	.	.	.	.	8b-/J	ver-	.
.	.	.	.	8A/L	Rin-	4f\	lie-	4cc\	dir	.
.	.	.	.	8B-/J	ver-	.	.	.	.	.
4A\	mio	.	.	4c\	dir	4e\	toA-	[4cc\	al	.
=67	=67	=67	=67	=67	=67	=67	=67	=67	=67	.
2G\	crin	1r	.	4d\	al	2g\	pri-	4cc\]	.	.
.	.	.	.	4d\	mio	.	.	4bn\	mio	.
4r	.	.	.	4c\	crin	4g\	le	2cc\	crin	.
4C/	Ma	.	.	4c\	Ma	8e\L	Rin-	.	.	.
.	.	.	.	.	.	8f\J	ver-	.	.	.
=68	=68	=68	=68	=68	=68	=68	=68	=68	=68	.
4.C/	se	4r	.	4.e\	se	2g\	dir	1r	.	.
.	.	4G/	Ma	.	.	.	.	.	.	.
8BB-/	nel	.	.	8d\	nel	.	.	.	.	.
4C/	lie-	4.G/	se	4e\	lie-	2r	.	.	.	.
4D\	toA-	.	.	4f\	toA-	.	.	.	.	.
.	.	8F/	nel	.	.	.	.	.	.	.
=69	=69	=69	=69	=69	=69	=69	=69	=69	=69	.
2C/	mo-	4G/	lie-	2e\	pri-	2r	.	2r	.	.
.	.	4A/	toA-	.	.	.	.	.	.	.
2C/	re	2G/	pri-	2e\	le	4r	.	4r	.	>>
.	.	.	.	.	.	8c\L	Rin-	8e/L	Rin-	<ANTIFlib_5v
.	.	.	.	.	.	8d\J	ver-	8f/J	ver-	.
=70	=70	=70	=70	=70	=70	=70	=70	=70	=70	.
4r	.	4c\	le	1r	.	4e\	dir	4g/	dir	.
8FF/L	Rin-	8A/L	Rin-	.	.	[4f\	al	2a/	al	.
8GG/J	ver-	8B-/J	ver-	.	.	.	.	.	.	.
4AA/	dir	4c\	dir	.	.	8f\L]	.	.	.	.
.	.	.	.	.	.	8e\J	.	.	.	.
[4BB-/	al	[4d\	al	.	.	8d\L	.	4f/	mio	.
.	.	.	.	.	.	8c\J	.	.	.	.
=71	=71	=71	=71	=71	=71	=71	=71	=71	=71	.
4BB-/]	.	4d\]	.	8F/L	Rin-	4B-\	.	2f/	crin	.
.	.	.	.	8G/J	ver-	.	.	.	.	.
4FF/	mio	4c\	mio	2A/	dir	4f\	mio	.	.	.
2C/	crin	2c\	crin	.	.	4e\	crin	4r	.	.
.	.	.	.	[4G/	al	8e\L	Rin-	8g/L	Rin-	.
.	.	.	.	.	.	8f\J	ver-	8a/J	ver-	.
=72	=72	=72	=72	=72	=72	=72	=72	=72	=72	.
2r	.	4r	.	4G/]	.	4g\	dir	4bn\	dir	.
.	.	8f\L	Rin-	4F/	mio	4a\	al	2cc\	al	.
.	.	8e\J	ver-	.	.	.	.	.	.	.
4r	.	4d\	dir	4G/	crin	2g\	mio	.	.	.
4GG/	non	[4G/	al	4D/	non	.	.	4b\	mio	.
=73	=73	=73	=73	=73	=73	=73	=73	=73	=73	.
4C/	dee	4G/]	.	4E/	dee	4g\	crin	2cc\	crin	.
4AA/	co-	4A/	mio	2F/	co-	4c\	non	.	.	.
2GG/	ro-	4.B-\	crin	.	.	2g\	dee	4r	.	.
.	.	.	.	4E/	ro-	.	.	4g/	non	.
.	.	8B-\	non	.	.	.	.	.	.	.
=74	=74	=74	=74	=74	=74	=74	=74	=74	=74	.
2FF/	na	4A/	dee	2F/	na	4c\	co-	4cc\	dee	.
.	.	4F/	co-	.	.	2f\	ro-	4a/	co-	.
2r	.	2c\	ro-	4r	.	.	.	2g/	ro-	.
.	.	.	.	[4c\	Sec-	4e\	.	.	.	<<CON_5v
=75	=75	=75	=75	=75	=75	=75	=75	=75	=75	.
4r	.	2F/	na	8c\L]	.	2f\	na	1f/	na	>
.	.	.	.	8c\J	chi-	.	.	.	.	.
[4F\	Sec-	.	.	4A/	sian-	.	.	.	.	.
8F\L]	.	2r	.	4c\	co-	4r	.	.	.	.
8F\J	chi-	.	.	.	.	.	.	.	.	.
4BB-/	sian-	.	.	4d\	Per-	[4f\	Sec-	.	.	.
=76	=76	=76	=76	=76	=76	=76	=76	=76	=76	.
4D\	co	4r	.	2G/	mes-	8f\L]	.	1r	.	.
.	.	.	.	.	.	8f\J	chi-	.	.	.
4AA/	Per-	[4F/	Sec-	.	.	4c\	sian-	.	.	.
2BB-/	mes-	8F/L]	.	2F/	so	4d\	co	.	.	.
.	.	8F/J	chi-	.	.	.	.	.	.	.
.	.	4B-\	sian-	.	.	4f\	Per-	.	.	.
=77	=77	=77	=77	=77	=77	=77	=77	=77	=77	.
2C/	so	4G/	co	2r	.	2e\	mes-	4r	.	.
.	.	4c\	Per-	.	.	.	.	[4cc\	Sec-	.
2r	.	[2F/	mes-	4r	.	2a\	so	8cc\L]	.	.
.	.	.	.	.	.	.	.	8cc\J	chi-	.
.	.	.	.	[4c\	Sec-	.	.	4f/	sian-	.
=78	=78	=78	=78	=78	=78	=78	=78	=78	=78	.
4r	.	4F/]	.	8c\L]	.	2r	.	4a/	co	.
.	.	.	.	8c\J	chi-	.	.	.	.	.
[4C/	Sec-	8E/L	.	2G/	sian-	.	.	4g/	Per-	.
.	.	8D/J	.	.	.	.	.	.	.	.
8C/L]	.	4E/	.	.	.	4r	.	2cc\	mes-	.
8C/J	chi-	.	.	.	.	.	.	.	.	.
4FF/	sian-	4F/	so	[4A/	co	[4f\	Sec-	.	.	.
=79	=79	=79	=79	=79	=79	=79	=79	=79	=79	.
4AA/	co	2r	.	4A/]	.	8f\L]	.	2f/	so	.
.	.	.	.	.	.	8f\J	chi-	.	.	.
4BB-/	Per-	.	.	4F/	Per-	4d\	sian-	.	.	.
2C/	me-	4r	.	2E/	me-	4c\	co	2r	.	.
.	.	4c\	in	.	.	4G/	Per-	.	.	.
=80	=80	=80	=80	=80	=80	=80	=80	=80	=80	.
2FF/	so	4A/	He-	2F/	so	2A/	mes-	4r	.	.
.	.	4F/	li-	.	.	.	.	[4cc\	Sec-	.
2r	.	2C/	co-	4r	.	2G/	so	8cc\L]	.	.
.	.	.	.	.	.	.	.	8cc\J	chi-	.
.	.	.	.	4E/	in	.	.	4g/	sian-	.
=81	=81	=81	=81	=81	=81	=81	=81	=81	=81	.
1r	.	4F/	na	4F/	He-	4r	.	4a/	co	.
.	.	4E/	in	4G/	li-	4c\	in	4g/	Per-	.
.	.	4F/	He-	4.A/	co-	4A/	He-	[2f/	mes-	.
.	.	[4D/	li-	.	.	8F/L	li-	.	.	.
.	.	.	.	8G/	.	8G/J	.	.	.	.
=82	=82	=82	=82	=82	=82	=82	=82	=82	=82	.
1r	.	4D/]	.	4F/	.	8A/L	.	4f/]	.	.
.	.	.	.	.	.	8B-/J	.	.	.	.
.	.	2E/	co-	4C/	.	[4c\	.	4g/	soin	.
.	.	.	.	[2C/	na	8c\L]	.	4e/	He-	.
.	.	.	.	.	.	8B-\J	.	.	.	.
.	.	[4F/	.	.	.	4A/	.	4c/	li-	.
=83	=83	=83	=83	=83	=83	=83	=83	=83	=83	.
2r	.	4F/]	.	2C/]	.	2G/	co-	2g/	co-	.
.	.	4E/	.	.	.	.	.	.	.	.
4r	.	2F/	na	2r	.	2A/	na	2c/	na	>>
[4F\	Sec-	.	.	.	.	.	.	.	.	<imit_5v
=84	=84	=84	=84	=84	=84	=84	=84	=84	=84	.
8F\L]	.	4r	.	4.c\	Sec-	4r	.	1r	.	.
8F\J	chi-	.	.	.	.	.	.	.	.	.
4C/	sian-	4c\	in	.	.	4g\	in	.	.	.
.	.	.	.	8c\	chi-	.	.	.	.	.
4E\	co	4.c\	He-	4G/	sian-	4e\	He-	.	.	.
4F\	Per-	.	.	4A/	co	4c\	li-	.	.	.
.	.	8f\	li-	.	.	.	.	.	.	.
=85	=85	=85	=85	=85	=85	=85	=85	=85	=85	.
2C/	mes-	2e\	co-	4G/	Per-	2g\	co-	4r	.	.
.	.	.	.	2c\	me-	.	.	4cc\	in	.
4F\	soin	2f\	na	.	.	4c\	na	4a/	He-	.
[4D\	He-	.	.	4F/	soin	[4d\	Sec-	[4f/	li-	.
=86	=86	=86	=86	=86	=86	=86	=86	=86	=86	.
4D\]	.	4r	.	4A/	He-	8d\L]	.	4f/]	.	.
.	.	.	.	.	.	8d\J	chi-	.	.	.
4BB-/	li-	[4f\	Sec-	4B-\	li	4d\	sian-	[4b-\	co-	.
2F\	co-	8f\L]	.	[2c\	co-	4c\	co	8b-/L]	.	.
.	.	8f\J	chi-	.	.	.	.	16a/L	.	.
.	.	.	.	.	.	.	.	16g/JJ	.	.
.	.	4c\	sian-	.	.	4A/	Per-	8a/L	.	.
.	.	.	.	.	.	.	.	8b-/J	.	.
=87	=87	=87	=87	=87	=87	=87	=87	=87	=87	.
1C/	na	4.e-\	co	4c\]	.	2G/	mes-	2cc\	.	.
.	.	.	.	4G/	na	.	.	.	.	.
.	.	8d\	.	.	.	.	.	.	.	.
.	.	4c\	.	2r	.	2e-\	soin	2g/	na	.
.	.	4c\	Per-	.	.	.	.	.	.	.
=88	=88	=88	=88	=88	=88	=88	=88	=88	=88	.
2r	.	2Bn\	mes-	2.G/	in	4d\	He-	4r	.	.
.	.	.	.	.	.	4d\	li-	4g/	in	.
2C/	in	2c\	so	.	.	4c\	co-	2e/	He-	.
.	.	.	.	[4E/	He-	4G/	.	.	.	.
=89	=89	=89	=89	=89	=89	=89	=89	=89	=89	.
2AA/	He-	4r	.	4E/]	.	2A/	na	2c/	li-	.
.	.	4c\	in	2C/	li-	.	.	.	.	.
2FF/	li-	2A/	He-	.	.	4r	.	[2cc\	co-	.
.	.	.	.	[4C/	co-	4c\	in	.	.	.
=90	=90	=90	=90	=90	=90	=90	=90	=90	=90	.
[1C/	co-	2G/	li-	8C/L]	.	4.c\	He-	4cc\]	.	.
.	.	.	.	8D/J	.	.	.	.	.	.
.	.	.	.	8E/L	.	.	.	8b-/L	.	.
.	.	.	.	8F/J	.	8d\	li-	8a/J	.	.
.	.	[2c\	co-	4G/	.	4e\	co-	4g/	.	.
.	.	.	.	4A/	.	[4f\	.	4f/	.	.
=91	=91	=91	=91	=91	=91	=91	=91	=91	=91	.
1C/]	.	4c\]	.	1G/	.	4f\]	.	1g/	.	.
.	.	4G/	.	.	.	8e\L	.	.	.	.
.	.	.	.	.	.	8d\J	.	.	.	.
.	.	2c\	.	.	.	2e\	.	.	.	.
=92	=92	=92	=92	=92	=92	=92	=92	=92	=92	.
1FF/	na.	1c\	na.	1F/	na.	1f\	na.	1a/	na.	>
==	==	==	==	==	==	==	==	==	==	==
*-	*-	*-	*-	*-	*-	*-	*-	*-	*-	*-